X:57
T:Sir Malcolm Gereams(?). GS.057
M:2/4
L:1/16
Q:1/4=110
S:George Spencer m/s, Leeds,1831
R:.Country-dance
O:England
A:Leeds
N:The change of time signature for the C music is not shown in ms.The
N:words â€˜George Spencer, Leedsâ€™ are written on the stave after the final
N:double bar..
H:1831
Z:vmp.Cherri Graebe
K:D major
â€œ_See noteâ€D2DA, F2FD | A2AF d4 | A2A2 BAGF | AGFG E4 |!
D2DA, F2FD | A2AF d4 | cecA BdB^G | A2c2A2 z2 ||!
gfed â€œ^crâ€c2 ec | d2fd A4 | A2A2 A2Bc | dcde f4 |!
gfed c2ec | d2fd A2G2 | ^GABc edBG | A2c2A2 z2 ||!
M:3/8
L:1/8
Q:3/8=110
f>ed | dcB | AFG | A2d | fed | dcd | eaa | a3 |!
f>ed | dcB | AFG | ABc |d2d | ede | fdc | d3 |]

